X: 1
T: the Feral Cats v2
C: Janna Maria Fr\"ohlich 2012
R: jig
Z: 2015 John Chambers <jc:trillian.mit.edu>
N: "To Fellswater -- In honor of the wild cats that roam from my back yard to Roslindale Village!"
M: 6/8
L: 1/8
K: Em
%%slurgraces
e |\
f2e/d/ e2B | c2{e}d B2B | e2d/c/ fed | {b}a3 {e}g2g |
{a}g2f {g}f2e | f2d c2e | G2d F2c | {E}B> AG/F/ E2 :|
|: E |\
G2F/E/ B2G/E/ | ecd BcA | BGA FcB | ABc B2B |
g2f/e/ d2c/B/ | d2c/B/ A2B/c/ | BAG FGA | B>AG/F/ {B}E2 :|
